icons/svg/openid.svg

﻿<?xml version="1.0" encoding="utf-8"?>
<!DOCTYPE svg PUBLIC "-//W3C//DTD SVG 1.1//EN" "http://www.w3.org/Graphics/SVG/1.1/DTD/svg11.dtd">
<svg xmlns="http://www.w3.org/2000/svg" xmlns:xlink="http://www.w3.org/1999/xlink" version="1.1" baseProfile="full" width="24" height="24" viewBox="0 0 24.00 24.00" enable-background="new 0 0 24.00 24.00" xml:space="preserve">
	<path fill="#000000" fill-opacity="1" stroke-width="1.33333" stroke-linejoin="miter" d="M 14,2L 11,3.5L 11,19.9375C 7.0189,19.5218 4,17.4612 4,15C 4,12.7499 6.52444,10.8463 10,10.2187L 10,8.1875C 4.85593,8.8846 1,11.6588 1,15C 1,18.5573 5.35565,21.4911 11,21.9375C 11.0316,21.94 11.0621,21.9352 11.0938,21.9375L 14,20.5L 14,2 Z M 15,8.1875L 15,10.2187C 16.1459,10.4257 17.1798,10.7677 18.0625,11.2187L 16.5,12L 23,13.5L 22.5,9L 20.5,10C 18.9989,9.116 17.1151,8.4741 15,8.1875 Z "/>
</svg>

<svg xmlns="http://www.w3.org/2000/svg" version="1.1" baseProfile="full" width="24" height="24" viewBox="0 0 24.00 24.00" xml:space="preserve"><path fill="#000" fill-opacity="1" stroke-width="1.333" stroke-linejoin="miter" d="M14 2l-3 1.5v16.438C7.02 19.521 4 17.46 4 15c0-2.25 2.524-4.154 6-4.78V8.186C4.856 8.886 1 11.66 1 15c0 3.557 4.356 6.49 10 6.938.032.002.062-.003.094 0L14 20.5V2zm1 6.188v2.03c1.146.208 2.18.55 3.063 1L16.5 12l6.5 1.5-.5-4.5-2 1C19 9.116 17.115 8.474 15 8.187z"/></svg>
